X: 1272
T: Kurban Olayım Gamzene
C: Hacı Fâik Bey
O: Turkey
F: http://compmusic.upf.edu/node/140
N: huzzam--agirsemai--agir_aksaksemai--kurban_olayim--haci_faik_bey
N: makam= huzzam
N: form= agirsemai
N: usul= agir_aksaksemai = 10/4
M: 10/4
L: 1/16
K: C _1/4B _3/4e ^3/4f 
Q: 1/4=96
%%MIDI tuningsystem comma53
d6 de dc d3/2c/ Bc d4 z2  | d4 c2 d3c f2 ed dc B^A B2  | 
w:  Kur ban  *  *  *  o *  *  la yım   |  gam *  *  *  ze ne  *  bir   | 
B4 c2 d2 cd e2 fg fe dc d2  | g4 {a}gf f2 ed e2 fg fe d2 z2  | 
w:  kez  *  *  *  *  na zâr_ *  ey  |  le  *  *  *  *  *  *  ce nan  *  ey    | 
g4 a_b ag2f g3/2f/ =ef g4 z2  | fg a_2/4b c'_7/8b _ba2g ba gf gf ed c2  | 
w:  Câ *  *  nım  *  *  gel  *  *  a man   |  ha *  *  *  lim  *  ol *  *  du  *  ya *  man    | 
d4 c2 d3c {g}f2 ed d3/2c/ Bd cB  | \
w:  Sev *  dim  *  *  se ni  *  ben   | 
Bc de fe ed2c dc cB B4 z2  | 
w:  ey  *  *  *  *  *  ka *  *  şı  *  ke *  man    | 
d6 de dc d3/2c/ Bc d4 z2  | d4 c2 d3c f2 ed dc B^A B2  | 
w:  Kur ban  *  *  *  o *  *  la yım   |  gam *  *  *  ze ne  *  bir   | 
B4 c2 d2 cd e2 fg fe dc d2  | g4 {a}gf f2 ed e2 fg fe d2 z2  | 
w:  kez  *  *  *  *  na zâr_ *  ey  |  le  *  *  *  *  *  *  ce nan  *  ey    | 
g4 a_b ag2f g3/2f/ =ef g4 z2  | fg a_2/4b c'_7/8b _ba2g ba gf gf ed c2  | 
w:  Câ *  *  nım  *  *  gel  *  *  a man   |  ha *  *  *  lim  *  ol *  *  du  *  ya *  man    | 
d4 c2 d3c {g}f2 ed d3/2c/ Bd cB  | \
w:  Sev *  dim  *  *  se ni  *  ben   | 
Bc de fe ed2c dc cB B4 z2  | 
w:  ey  *  *  *  *  *  ka *  *  şı  *  ke *  man    | 
g6 ga gf g3/2f/ =ef g4 z2  | g4 a_b ag2f fe ed e3/2d/ d2 z2  | 
w:  Hic rân  *  *  *  o *  *  du  pek   |  câ *  *  *  *  *  nı *  ma  *  kâr   | 
c4 Bc d2 cd e2 fg fe dc d2  | g4 {a}gf f2 ed e2 fg fe d3z  | 
w:  ey *  *  *  *  *  le di  *  yâ  |  rim  *  *  *  *  *  *  ce nan  *  ey    | 
g4 a_b ag2f g3/2f/ =ef g4 z2  | fg a_2/4b c'_7/8b _ba2g ba gf gf ed c2  | 
w:  Câ *  *  nım  *  *  gel  *  *  a man   |  ha *  *  *  lim  *  ol *  *  du  *  ya *  man    | 
d4 c2 d3c {g}f2 ed d3/2c/ Bd cB  | \
w:  Sev *  dim  *  *  se ni  *  ben   | 
Bc de fe ed2c dc cB B4 z2  | 
w:  ey  *  *  *  *  *  ka *  *  şı  *  ke *  man    | 
d6 de dc d3/2c/ Bc d4 z2  | d4 c2 d3c f2 ed dc B^A B2  | 
w:  Ey  bâd_ *  *  *  ı  *  *  sa bâ   |  sûz_ *  *  *  i di *  lim  | 
B4 c2 d2 cd e2 fg fe dc d2  | g4 {a}gf f2 ed e2 fg fe d2 z2  | 
w:  den  *  *  *  *  ha ber_ *  ey  |  le  *  *  *  *  *  *  ce nan  *  ey    | 
g4 a_b ag2f g3/2f/ =ef g4 z2  | fg a_2/4b c'_7/8b _ba2g ba gf gf ed c2  | 
w:  Câ *  *  nım  *  *  gel  *  *  a man   |  ha *  *  *  lim  *  ol *  *  du  *  ya *  man    | 
d4 c2 d3c {g}f2 ed d3/2c/ Bd cB  | \
w:  Sev *  dim  *  *  se ni  *  ben   | 
Bc de fe ed2c dc cB B4 z2  | 
w:  ey  *  *  *  *  *  ka *  *  şı  *  ke *  man    | 
|


